images/people/people-17.svg

<?xml version="1.0" standalone="no"?><!DOCTYPE svg PUBLIC "-//W3C//DTD SVG 1.1//EN" "http://www.w3.org/Graphics/SVG/1.1/DTD/svg11.dtd"><svg width="120px" height="192px" version="1.1" xmlns="http://www.w3.org/2000/svg" xmlns:xlink="http://www.w3.org/1999/xlink" xml:space="preserve" style="fill-rule:evenodd;clip-rule:evenodd;stroke-linejoin:round;stroke-miterlimit:1.41421;"><g><g id="people-17" transform="matrix(1,0,0,1,-74.1438,-48)"><g transform="matrix(1,0,0,1,0,-12)"><path d="M126.542,140.25l4.798,-1.888l10.425,-0.406l-1.975,-8.332l-12.688,-0.233l-0.56,10.859Z" style="fill:#e4e2dc;fill-rule:nonzero;"/></g><g transform="matrix(1,0,0,1,0,-12)"><path d="M127.48,138.305l2.554,-1.703l1.857,-5.265l4.292,1.223l1.361,3.346l2.942,1.47l-1.858,6.116l-8.748,0.233l-2.4,-5.42Z" style="fill:#ceab97;fill-rule:nonzero;"/></g><g transform="matrix(1,0,0,1,0,-12)"><path d="M141.253,233.534l0.853,6.195l-7.039,-0.155l-0.465,-6.658l6.651,0.618Z" style="fill:#2a2b2a;fill-rule:nonzero;"/></g><g transform="matrix(1,0,0,1,0,-12)"><path d="M134.758,196.062l0.929,46.917l-7.19,-1.083l-4.568,-45.989" style="fill:#e1c5b5;fill-rule:nonzero;"/></g><g transform="matrix(1,0,0,1,0,-12)"><path d="M134.602,179.494l0.156,19.819l0.736,33.835l5.76,0.386l2.324,-34.433l-8.976,-19.607Z" style="fill:#ceab97;fill-rule:nonzero;"/></g><g transform="matrix(1,0,0,1,0,-12)"><path d="M149.219,139.698l-8.704,-2.352l-2.274,5.603l-8.052,0.233l-2.709,-4.994l-8.192,3.563l4.212,6.999l-0.294,12l-4.205,48.158l29.847,0.232l-3.886,-47.89l0.704,-12.833l3.553,-8.719Z" style="fill:#694;fill-rule:nonzero;"/></g><g transform="matrix(1,0,0,1,0,-12)"><path d="M148.912,174.666l0.056,77.334l4.199,0l0.017,-79.344l-4.272,2.01Z" style="fill:#5c5e5f;fill-rule:nonzero;"/></g><g transform="matrix(1,0,0,1,0,-12)"><path d="M115.385,252l4.199,0l0.017,-75.906l-4.272,-2.719l0.056,78.625Z" style="fill:#5c5e5f;fill-rule:nonzero;"/></g><g transform="matrix(1,0,0,1,0,-12)"><path d="M117.5,189.698l0,-4.2l34.501,-0.056l0.719,4.273l-35.22,-0.017Z" style="fill:#5c5e5f;fill-rule:nonzero;"/></g><g transform="matrix(1,0,0,1,0,-12)"><path d="M145.562,148.75l3.999,22.426l4.246,-0.653l-4.58,-30.824l-3.665,9.051Z" style="fill:#e1c5b5;fill-rule:nonzero;"/></g><g transform="matrix(1,0,0,1,0,-12)"><path d="M153.808,170.427l0.714,4.286l-2.317,6.399l-2.527,-1.183l1.584,-5.687l-0.18,1.835l-2.171,-1.432l0.663,-3.5l4.234,-0.718Z" style="fill:#e1c5b5;fill-rule:nonzero;"/></g><g transform="matrix(1,0,0,1,0,-12)"><path d="M127.304,250.025l2.614,1.975l4.761,0l1.219,-9.001l-7.354,-1.141l-1.24,8.167Z" style="fill:#2a2b2a;fill-rule:nonzero;"/></g><g transform="matrix(1,0,0,1,0,-12)"><path d="M131.801,135.089l3.864,0l4.162,-5.351l-0.744,-11.446l-7.423,-1.24l-4.614,1.835l0.149,10.851l4.606,5.351Z" style="fill:#e1c5b5;fill-rule:nonzero;"/></g><g transform="matrix(1,0,0,1,0,-12)"><path d="M114.751,169.936l-0.985,5.412l1.427,7.047l2.573,-1.444l-0.737,-6.061l0.171,1.838l2.392,-0.595l-0.966,-4.113l-3.875,-2.084Z" style="fill:#e1c5b5;fill-rule:nonzero;"/></g><g transform="matrix(1,0,0,1,0,-12)"><path d="M123.438,148.375l-4.814,23.682l-4.052,-1.145l4.741,-29.037l4.125,6.5Z" style="fill:#e1c5b5;fill-rule:nonzero;"/></g><g transform="matrix(1,0,0,1,0,-12)"><path d="M132.917,113.667l8.583,2.708l4.707,23.208l-4.851,5.167l0.059,-5.574l-0.31,-1.646l-1.491,-7.529l-1.864,-9.501l-5.103,-2.083l0.27,-4.75Z" style="fill:#e4e2dc;fill-rule:nonzero;"/></g><g transform="matrix(1,0,0,1,0,-12)"><path d="M132.734,118.417l-5.022,1.887l-0.588,22.196l-4.248,-0.749l0.832,-23.918l9.334,-4.25l-0.308,4.834Z" style="fill:#e4e2dc;fill-rule:nonzero;"/></g></g></g></svg>

<?xml version="1.0" encoding="UTF-8" standalone="no"?>
<!DOCTYPE svg PUBLIC "-//W3C//DTD SVG 1.1//EN" "http://www.w3.org/Graphics/SVG/1.1/DTD/svg11.dtd">
<svg width="100%" height="100%" viewBox="0 0 140 220" version="1.1" xmlns="http://www.w3.org/2000/svg" xmlns:xlink="http://www.w3.org/1999/xlink" xml:space="preserve" xmlns:serif="http://www.serif.com/" style="fill-rule:evenodd;clip-rule:evenodd;stroke-linejoin:round;stroke-miterlimit:2;">
    <g id="people-17" transform="matrix(1.27,0,0,1.27,-100.363,-84.8)">
        <g transform="matrix(1,0,0,1,0,-12)">
            <path d="M126.542,140.25L131.34,138.362L141.765,137.956L139.79,129.624L127.102,129.391L126.542,140.25Z" style="fill:rgb(228,226,220);fill-rule:nonzero;"/>
        </g>
        <g transform="matrix(1,0,0,1,0,-12)">
            <path d="M127.48,138.305L130.034,136.602L131.891,131.337L136.183,132.56L137.544,135.906L140.486,137.376L138.628,143.492L129.88,143.725L127.48,138.305Z" style="fill:rgb(206,171,151);fill-rule:nonzero;"/>
        </g>
        <g transform="matrix(1,0,0,1,0,-12)">
            <path d="M141.253,233.534L142.106,239.729L135.067,239.574L134.602,232.916L141.253,233.534Z" style="fill:rgb(42,43,42);fill-rule:nonzero;"/>
        </g>
        <g transform="matrix(1,0,0,1,0,-12)">
            <path d="M134.758,196.063L135.687,242.98L128.497,241.897L123.929,195.908" style="fill:rgb(225,197,181);fill-rule:nonzero;"/>
        </g>
        <g transform="matrix(1,0,0,1,0,-12)">
            <path d="M134.602,179.494L134.758,199.313L135.494,233.148L141.254,233.534L143.578,199.101L134.602,179.494Z" style="fill:rgb(206,171,151);fill-rule:nonzero;"/>
        </g>
        <g transform="matrix(1,0,0,1,0,-12)">
            <path d="M149.219,139.698L140.515,137.346L138.241,142.949L130.189,143.182L127.48,138.188L119.288,141.751L123.5,148.75L123.206,160.75L119.001,208.908L148.848,209.14L144.962,161.25L145.666,148.417L149.219,139.698Z" style="fill:rgb(102,153,68);fill-rule:nonzero;"/>
        </g>
        <g transform="matrix(1,0,0,1,0,-12)">
            <path d="M148.912,174.666L148.968,252L153.167,252L153.184,172.656L148.912,174.666Z" style="fill:rgb(92,94,95);fill-rule:nonzero;"/>
        </g>
        <g transform="matrix(1,0,0,1,0,-12)">
            <path d="M115.385,252L119.584,252L119.601,176.094L115.329,173.375L115.385,252Z" style="fill:rgb(92,94,95);fill-rule:nonzero;"/>
        </g>
        <g transform="matrix(1,0,0,1,0,-12)">
            <path d="M117.5,189.698L117.5,185.498L152.001,185.442L152.72,189.715L117.5,189.698Z" style="fill:rgb(92,94,95);fill-rule:nonzero;"/>
        </g>
        <g transform="matrix(1,0,0,1,0,-12)">
            <path d="M145.563,148.75L149.562,171.176L153.808,170.523L149.228,139.699L145.563,148.75Z" style="fill:rgb(225,197,181);fill-rule:nonzero;"/>
        </g>
        <g transform="matrix(1,0,0,1,0,-12)">
            <path d="M153.808,170.427L154.522,174.713L152.205,181.112L149.678,179.929L151.262,174.242L151.082,176.077L148.911,174.645L149.574,171.145L153.808,170.427Z" style="fill:rgb(225,197,181);fill-rule:nonzero;"/>
        </g>
        <g transform="matrix(1,0,0,1,0,-12)">
            <path d="M127.304,250.025L129.918,252L134.679,252L135.898,242.999L128.544,241.858L127.304,250.025Z" style="fill:rgb(42,43,42);fill-rule:nonzero;"/>
        </g>
        <g transform="matrix(1,0,0,1,0,-12)">
            <path d="M131.801,135.089L135.665,135.089L139.827,129.738L139.083,118.292L131.66,117.052L127.046,118.887L127.195,129.738L131.801,135.089Z" style="fill:rgb(225,197,181);fill-rule:nonzero;"/>
        </g>
        <g transform="matrix(1,0,0,1,0,-12)">
            <path d="M114.751,169.937L113.766,175.349L115.193,182.396L117.766,180.952L117.029,174.891L117.2,176.729L119.592,176.134L118.626,172.021L114.751,169.937Z" style="fill:rgb(225,197,181);fill-rule:nonzero;"/>
        </g>
        <g transform="matrix(1,0,0,1,0,-12)">
            <path d="M123.438,148.375L118.624,172.057L114.572,170.912L119.313,141.875L123.438,148.375Z" style="fill:rgb(225,197,181);fill-rule:nonzero;"/>
        </g>
        <g transform="matrix(1,0,0,1,0,-12)">
            <path d="M132.918,113.667L141.5,116.375L146.207,139.583L141.356,144.75L141.415,139.176L141.105,137.53L139.615,130.001L137.75,120.5L132.647,118.417L132.918,113.667Z" style="fill:rgb(228,226,220);fill-rule:nonzero;"/>
        </g>
        <g transform="matrix(1,0,0,1,0,-12)">
            <path d="M132.734,118.417L127.712,120.304L127.124,142.5L122.876,141.751L123.708,117.833L133.042,113.583L132.734,118.417Z" style="fill:rgb(228,226,220);fill-rule:nonzero;"/>
        </g>
    </g>
</svg>
